X: 114
T:Jota do Escano
M:3/4
L:1/8
Q:250
C:Emilio Fernández
S:Rep. Emilio Perez
R:Jota
K:C
EFED | C2 EFED | C2 F2{C}F2 | E2 FED2- | D2 DEDC | B,2 DEDC | B,2 E2{C}E
2 | D2 EDC2-|
C2 EFED | C2 EFED | C2 F2{C}F2 | E2 FE D2- | D2 GAGF| E2C2E2 | D2B,2D2 |
: C6- | C"F."G CDEF|
A2 BAGF | G2 AGFE | F2 AGFE |D6- | D2 B,CDE | G2 AGFE | F2GFED |E2 GFED
:|
C6- | C6 | E2 "F."cE {C}E2 | C2D2E2 | F6 | D4- D"F."c|  D2"F."cD {C}D2 |
 B,2C2D2| E6 |
C6 |: E2 "F."cE {C}E2 | C2D2E2 |F4E2| G4F2| A4G2-|G2 E2F2 |D2EDC2- |C
6- :|C2||

